Images/Icons/Twitter.svg

<svg width="100" height="100" viewBox="0 0 100 100" fill="none" xmlns="http://www.w3.org/2000/svg">
<path d="M75 34.773C73.1815 35.6819 71.1367 36.1367 69.0911 36.3637C71.1367 35 72.7274 33.1823 73.6363 30.6819C71.5907 31.8185 69.5452 32.7274 67.0456 33.1815C65.227 31.1359 62.5004 30 59.546 30C53.8641 30 49.3189 34.5452 49.3189 40.227C49.3189 41.1359 49.3189 41.8177 49.546 42.4996C41.1367 42.0448 33.6371 37.9544 28.4101 31.8177C27.5012 33.4085 27.0464 34.9992 27.0464 37.0448C27.0464 40.6811 28.8649 43.6355 31.5915 45.454C30.0008 45.454 28.4101 44.9992 27.0464 44.0903V44.3174C27.0464 49.3174 30.4556 53.4085 35.2278 54.3174C34.3189 54.5444 33.4093 54.7722 32.5004 54.7722C31.8185 54.7722 31.1367 54.7722 30.6819 54.5452C32.0456 58.6363 35.6819 61.5907 40.227 61.5907C36.8177 64.3181 32.2726 65.9089 27.4996 65.9089C26.5907 65.9089 25.9089 65.9089 25 65.6819C29.5452 68.6363 34.773 70.227 40.6819 70.227C59.5452 70.227 69.7722 54.773 69.7722 41.1367V39.773C72.0456 38.6363 73.6363 36.8185 75 34.773Z" fill="black"/>
</svg>

<?xml version="1.0" encoding="utf-8"?>
<!-- Generator: Adobe Illustrator 27.1.1, SVG Export Plug-In . SVG Version: 6.00 Build 0)  -->
<svg version="1.1" id="Capa_1" xmlns="http://www.w3.org/2000/svg" xmlns:xlink="http://www.w3.org/1999/xlink" x="0px" y="0px"
	 viewBox="0 0 100 100" style="enable-background:new 0 0 100 100;" xml:space="preserve">
<style type="text/css">
	.st0{fill:#121212;}
</style>
<path class="st0" d="M75,34.8c-1.8,0.9-3.9,1.4-5.9,1.6c2-1.4,3.6-3.2,4.5-5.7c-2,1.1-4.1,2-6.6,2.5c-1.8-2-4.5-3.2-7.5-3.2
	c-5.7,0-10.2,4.5-10.2,10.2c0,0.9,0,1.6,0.2,2.3C41.1,42,33.6,38,28.4,31.8C27.5,33.4,27,35,27,37c0,3.6,1.8,6.6,4.5,8.4
	c-1.6,0-3.2-0.5-4.5-1.4v0.2c0,5,3.4,9.1,8.2,10c-0.9,0.2-1.8,0.5-2.7,0.5c-0.7,0-1.4,0-1.8-0.2c1.4,4.1,5,7,9.5,7
	c-3.4,2.7-8,4.3-12.7,4.3c-0.9,0-1.6,0-2.5-0.2c4.5,3,9.8,4.5,15.7,4.5c18.9,0,29.1-15.5,29.1-29.1v-1.4C72,38.6,73.6,36.8,75,34.8z
	"/>
</svg>
